flaticon/household/television-4.svg

<svg xmlns="http://www.w3.org/2000/svg" width="32" height="32" viewBox="0 0 24 24">
    <path d="M 22.925781 17.800781 C 23.570312 17.371094 24 16.632812 24 15.800781 C 24 14.476562 22.921875 13.398438 21.601562 13.398438 L 15.601562 13.398438 L 15.601562 12.199219 L 12.398438 12.199219 L 12.398438 11.800781 L 23.199219 11.800781 L 23.199219 0.199219 L 0.800781 0.199219 L 0.800781 11.800781 L 11.601562 11.800781 L 11.601562 12.199219 L 8.398438 12.199219 L 8.398438 13.398438 L 2.398438 13.398438 C 1.078125 13.398438 0 14.476562 0 15.800781 C 0 16.632812 0.429688 17.371094 1.074219 17.800781 C 0.429688 18.230469 0 18.964844 0 19.800781 C 0 21.125 1.078125 22.199219 2.398438 22.199219 L 2.800781 22.199219 L 2.800781 23.800781 L 5.199219 23.800781 L 5.199219 22.199219 L 18.800781 22.199219 L 18.800781 23.800781 L 21.199219 23.800781 L 21.199219 22.199219 L 22 22.199219 L 22 22.164062 C 23.132812 21.972656 24 20.988281 24 19.800781 C 24 18.964844 23.570312 18.230469 22.925781 17.800781 Z M 22.398438 1 L 22.398438 9.800781 L 1.601562 9.800781 L 1.601562 1 Z M 1.601562 10.601562 L 22.398438 10.601562 L 22.398438 11 L 1.601562 11 Z M 21.601562 14.199219 C 22.480469 14.199219 23.199219 14.917969 23.199219 15.800781 C 23.199219 16.683594 22.480469 17.398438 21.601562 17.398438 L 17.601562 17.398438 L 17.601562 15 L 10.398438 15 L 10.398438 17.398438 L 9.199219 17.398438 L 9.199219 14.199219 Z M 16.800781 17.398438 L 11.199219 17.398438 L 11.199219 15.800781 L 16.800781 15.800781 Z M 9.199219 13 L 14.800781 13 L 14.800781 13.398438 L 9.199219 13.398438 Z M 8.398438 14.199219 L 8.398438 17.398438 L 7.601562 17.398438 L 7.601562 14.199219 Z M 6.800781 14.199219 L 6.800781 17.398438 L 6 17.398438 L 6 14.199219 Z M 5.199219 14.199219 L 5.199219 17.398438 L 4.398438 17.398438 L 4.398438 14.199219 Z M 0.800781 15.800781 C 0.800781 14.917969 1.519531 14.199219 2.398438 14.199219 L 3.601562 14.199219 L 3.601562 17.398438 L 2.398438 17.398438 C 1.519531 17.398438 0.800781 16.683594 0.800781 15.800781 Z M 4.398438 23 L 3.601562 23 L 3.601562 22.199219 L 4.398438 22.199219 Z M 5.199219 21.398438 L 3.601562 21.398438 L 3.601562 19.800781 L 8.800781 19.800781 L 8.800781 21.398438 Z M 10.800781 21.398438 L 10.800781 19.398438 L 14 19.398438 L 14 21.398438 Z M 20.398438 23 L 19.601562 23 L 19.601562 22.199219 L 20.398438 22.199219 Z M 18.800781 21.398438 L 16 21.398438 L 16 19.800781 L 21.199219 19.800781 L 21.199219 21.398438 Z M 22 21.34375 L 22 19 L 15.199219 19 L 15.199219 21.398438 L 14.800781 21.398438 L 14.800781 18.601562 L 10 18.601562 L 10 21.398438 L 9.601562 21.398438 L 9.601562 19 L 2.800781 19 L 2.800781 21.398438 L 2.398438 21.398438 C 1.519531 21.398438 0.800781 20.683594 0.800781 19.800781 C 0.800781 18.917969 1.519531 18.199219 2.398438 18.199219 L 21.601562 18.199219 C 22.480469 18.199219 23.199219 18.917969 23.199219 19.800781 C 23.199219 20.542969 22.6875 21.164062 22 21.34375 Z M 22 21.34375"/>
    <path d="M16 16.601562C16 16.820312 15.820312 17 15.601562 17 15.378906 17 15.199219 16.820312 15.199219 16.601562 15.199219 16.378906 15.378906 16.199219 15.601562 16.199219 15.820312 16.199219 16 16.378906 16 16.601562zM4.800781 20.601562C4.800781 20.820312 4.621094 21 4.398438 21 4.179688 21 4 20.820312 4 20.601562 4 20.378906 4.179688 20.199219 4.398438 20.199219 4.621094 20.199219 4.800781 20.378906 4.800781 20.601562zM17.199219 20.601562C17.199219 20.820312 17.019531 21 16.800781 21 16.578125 21 16.398438 20.820312 16.398438 20.601562 16.398438 20.378906 16.578125 20.199219 16.800781 20.199219 17.019531 20.199219 17.199219 20.378906 17.199219 20.601562zM13.601562 20.199219C13.601562 20.421875 13.421875 20.601562 13.199219 20.601562 12.980469 20.601562 12.800781 20.421875 12.800781 20.199219 12.800781 19.980469 12.980469 19.800781 13.199219 19.800781 13.421875 19.800781 13.601562 19.980469 13.601562 20.199219zM13.601562 20.199219"/>
</svg>

<svg xmlns="http://www.w3.org/2000/svg" width="32" height="32" viewBox="0 0 24 24">
    <path d="M22.926 17.8a2.408 2.408 0 0 0 1.074-2 2.405 2.405 0 0 0-2.398-2.402h-6V12.2h-3.204v-.398H23.2V.199H.801v11.602h10.8v.398H8.399v1.2h-6A2.405 2.405 0 0 0 0 15.8c0 .832.43 1.57 1.074 2A2.402 2.402 0 0 0 0 19.8a2.401 2.401 0 0 0 2.398 2.398h.403v1.602h2.398v-1.602h13.602v1.602h2.398v-1.602H22v-.035a2.401 2.401 0 0 0 2-2.363c0-.836-.43-1.57-1.074-2zM22.398 1v8.8H1.602V1zM1.602 10.602h20.796V11H1.602zm20 3.597a1.6 1.6 0 1 1 0 3.2h-4V15h-7.204v2.398H9.2V14.2zM16.8 17.4h-5.602V15.8h5.602zM9.199 13h5.602v.398H9.199zm-.8 1.2v3.198h-.797V14.2zm-1.598 0v3.198H6V14.2zm-1.602 0v3.198h-.8V14.2zM.801 15.8c0-.882.719-1.6 1.597-1.6h1.204v3.198H2.398a1.6 1.6 0 0 1-1.597-1.597zM4.398 23h-.796v-.8h.796zm.801-1.602H3.602v-1.597H8.8v1.597zm5.602 0v-2H14v2zM20.398 23h-.796v-.8h.796zm-1.597-1.602H16v-1.597h5.2v1.597zM22 21.344V19h-6.8v2.398h-.4v-2.796H10v2.796h-.398V19H2.8v2.398h-.403a1.6 1.6 0 0 1 0-3.199h19.204c.878 0 1.597.719 1.597 1.602A1.6 1.6 0 0 1 22 21.344zm0 0"/>
    <path d="M16 16.602a.4.4 0 1 1-.8-.004.4.4 0 0 1 .8.004zm0 0M4.8 20.602A.401.401 0 1 1 4 20.597a.401.401 0 0 1 .802.005zm0 0M17.2 20.602a.4.4 0 1 1-.801-.004.4.4 0 0 1 .8.004zm0 0M13.602 20.2a.401.401 0 1 1 0 0zm0 0"/>
</svg>
